packages/icons/svg/Product_Promise_Modular_64px.svg

<svg xmlns="http://www.w3.org/2000/svg" viewBox="0 0 64 64"><path d="M58.86 30.08a7 7 0 00-5.34-5.42 7.14 7.14 0 00-2.52-.09V15a2 2 0 00-2-2H36.89a1.51 1.51 0 00-1.28.72 1.49 1.49 0 000 1.46 4 4 0 01-2.72 5.74 4 4 0 01-4.4-5.74 1.49 1.49 0 00-.05-1.46 1.51 1.51 0 00-1.33-.72H15a2 2 0 00-2 2v12.11a1.51 1.51 0 00.72 1.28 1.49 1.49 0 001.46.05 4 4 0 014.91 6.1 4 4 0 01-4.91 1 1.49 1.49 0 00-1.46 0 1.51 1.51 0 00-.72 1.35V49a2 2 0 002 2h12.11a1.51 1.51 0 001.28-.72 1.49 1.49 0 00.05-1.46 4 4 0 012.72-5.74 4 4 0 014.61 5.25A2 2 0 0037.65 51H49a2 2 0 002-2V38.43a6.63 6.63 0 001 .07 7 7 0 006.86-8.42zm-3.77 4a4 4 0 01-4.91 1 1.49 1.49 0 00-1.46 0 1.51 1.51 0 00-.72 1.31V48h-9.07a6.63 6.63 0 00.07-1 7 7 0 00-2.56-5.41 7 7 0 00-11.28 3.89 7.15 7.15 0 00-.09 2.52H16v-9.07a6.63 6.63 0 001 .07 7 7 0 006.86-8.42 7 7 0 00-5.34-5.42 7.14 7.14 0 00-2.52-.09V16h9.07a6.63 6.63 0 00-.07 1 7 7 0 002.56 5.41 7 7 0 0011.28-3.89 7.15 7.15 0 00.09-2.52H48v10.61a1.51 1.51 0 00.72 1.28 1.49 1.49 0 001.46.05A4 4 0 0155.09 34z"/></svg>

<svg xmlns="http://www.w3.org/2000/svg" viewBox="0 0 64 64"><defs></defs><g id="Icon"><path  d="M58.86,30.08a7,7,0,0,0-5.34-5.42A7.14,7.14,0,0,0,51,24.57V15a2,2,0,0,0-2-2H36.89a1.51,1.51,0,0,0-1.28.72,1.49,1.49,0,0,0,0,1.46,4,4,0,0,1-2.72,5.74,4,4,0,0,1-4.4-5.74,1.49,1.49,0,0,0-.05-1.46A1.51,1.51,0,0,0,27.11,13H15a2,2,0,0,0-2,2V27.11a1.51,1.51,0,0,0,.72,1.28,1.49,1.49,0,0,0,1.46.05,4,4,0,0,1,4.91,6.1,4,4,0,0,1-4.91,1,1.49,1.49,0,0,0-1.46,0A1.51,1.51,0,0,0,13,36.89V49a2,2,0,0,0,2,2H27.11a1.51,1.51,0,0,0,1.28-.72,1.49,1.49,0,0,0,.05-1.46,4,4,0,0,1,2.72-5.74,4,4,0,0,1,4.61,5.25A2,2,0,0,0,37.65,51H49a2,2,0,0,0,2-2V38.43a6.63,6.63,0,0,0,1,.07,7,7,0,0,0,6.86-8.42Zm-3.77,4a4,4,0,0,1-4.91,1,1.49,1.49,0,0,0-1.46,0A1.51,1.51,0,0,0,48,36.39V48H38.93A6.63,6.63,0,0,0,39,47a7,7,0,0,0-2.56-5.41,7,7,0,0,0-11.28,3.89A7.15,7.15,0,0,0,25.07,48H16V38.93A6.63,6.63,0,0,0,17,39a7,7,0,0,0,6.86-8.42,7,7,0,0,0-5.34-5.42A7.14,7.14,0,0,0,16,25.07V16h9.07A6.63,6.63,0,0,0,25,17a7,7,0,0,0,2.56,5.41,7,7,0,0,0,11.28-3.89A7.15,7.15,0,0,0,38.93,16H48V26.61a1.51,1.51,0,0,0,.72,1.28,1.49,1.49,0,0,0,1.46.05A4,4,0,0,1,55.09,34Z"/></g></svg>
